svgs/light/alien-8bit.svg

<svg xmlns="http://www.w3.org/2000/svg" viewBox="0 0 576 512"><!-- Font Awesome Pro 6.0.0-alpha2 by @fontawesome - https://fontawesome.com License - https://fontawesome.com/license (Commercial License) --><path d="M192 320H224V224H192V320ZM352 320H384V224H352V320ZM544 112H512C494.375 112 480 126.375 480 144V160H416V128H448C465.625 128 480 113.625 480 96V64C480 46.375 465.625 32 448 32H416C398.375 32 384 46.375 384 64H352C334.375 64 320 78.375 320 96V128H256V96C256 78.375 241.625 64 224 64H192C192 46.375 177.625 32 160 32H128C110.375 32 96 46.375 96 64V96C96 113.625 110.375 128 128 128H160V160H96V144C96 126.375 81.625 112 64 112H32C14.375 112 0 126.375 0 144V288C0 305.625 14.375 320 32 320H64V352C64 369.625 78.375 384 96 384H128V448C128 465.625 142.375 480 160 480H240C257.625 480 272 465.625 272 448V416C272 398.375 257.625 384 240 384H336C318.375 384 304 398.375 304 416V448C304 465.625 318.375 480 336 480H416C433.625 480 448 465.625 448 448V384H480C497.625 384 512 369.625 512 352V320H544C561.625 320 576 305.625 576 288V144C576 126.375 561.625 112 544 112ZM416 64H448V96H416V64ZM128 96V64H160V96H128ZM240 448H160V384H192V416H240V448ZM416 448H336V416H384V384H416V448ZM544 288H480V352H96V288H32V144H64V256H96V192H192V96H224V160H352V96H384V192H480V256H512V144H544V288Z"/></svg>

<svg xmlns="http://www.w3.org/2000/svg" viewBox="0 0 576 512"><!--! Font Awesome Pro 6.3.0 by @fontawesome - https://fontawesome.com License - https://fontawesome.com/license (Commercial License) Copyright 2023 Fonticons, Inc. --><path d="M192 320h32V224H192V320zM352 320h32V224h-32V320zM544 112h-32c-17.62 0-32 14.38-32 32V160l-64 .0002V128h32c17.62 0 32-14.38 32-32V64c0-17.62-14.38-31.1-32-31.1L416 32c-17.62 0-32 14.38-32 32L352 64c-17.62 0-32 14.38-32 32v32H256V96c0-17.62-14.38-32-32-32L192 64C192 46.38 177.6 32 160 32L128 32C110.4 32 96 46.38 96 64v32c0 17.62 14.38 32 32 32h32v32L96 160V144c0-17.62-14.38-32-32-32H32c-17.62 0-32 14.38-32 32V288c0 17.62 14.38 32 32 32h32v32c0 17.62 14.38 32 32 32l32 .0002V448c0 17.62 14.38 32 32 32l80 .0002c17.62 0 32-14.38 32-32v-32c0-17.62-14.38-32-32-32h96c-17.62 0-32 14.38-32 32v32c0 17.62 14.38 32 32 32L416 480c17.62 0 32-14.38 32-32v-63.1L480 384c17.62 0 32-14.38 32-32v-32h32c17.62 0 32-14.38 32-32V144C576 126.4 561.6 112 544 112zM416 64h32v32l-32-.0002V64zM128 96V64h32v32L128 96zM240 448H160v-64l32 .0002v32h48V448zM416 448h-80v-31.1H384v-32L416 384V448zM544 288h-64v64H96V288H32V144l32 .0002V256h32V192h96V96h32v64h128V96h32v96h96v64h32V144L544 144V288z"/></svg>
